!!!!SEGMENT: pl-kj--bj-muz-10210-iii-4_zarebski-juliusz--cracovienne-op-23-no-4.krn
!!!cenid: 18xx:3548
!!!COM: Zarębski, Juliusz
!!!COM-rismID: pe30020631
!!!CDT: 1854/02/28-1885/09/15
!!!CNT:
!!!OTL: Cracovienne op. 23 no. 4
!!!PDT:
!!!AGN:
!!!SMS-siglum: PL-Kj
!!!SMS-shelfmark: BJ Muz. 10210 III 4
!!!SMS-shelfwork: W
!!!SMS-variant:
!!!SMS-altvar:
!!!NIFC-rismSourceID:
!!!NIFC-rismChildID:
!!!NIFC-islandoraID: none
!!!URL-pdf-islandora:
!!!URL-scan: https://polona.pl/item/a-travers-pologne-danses-et-melodies-pour-piano-a-quatre-mains-oeuvre-23-no-4,MTEzMTYxNzIz/3 @EN{Scan on Polona} @PL{Skany w portalu Polona}
!!!ONB-nifc:
!!!OMD: Allegretto.
!!!OMD-mod:
!!!AIN: 2 piano
!!!key: G
**kern	**kern	**dynam	**mod-dynam	**kern	**fing	**kern	**dynam	**mod-dynam
*part2	*part2	*part2	*part2	*part1	*part1	*part1	*part1	*part1
*staff4	*staff3	*	*	*staff2	*staff2	*staff1	*	*
*I"PIANO.	*I"PIANO.	*	*	*I"PIANO.	*	*I"PIANO.	*	*
*mI"Pianoforte II	*mI"Pianoforte II	*	*	*mI"Pianoforte I	*	*mI"Pianoforte I	*	*
*I'Secondo.	*Secondo.	*	*	*I'Primo.	*	*I'Primo.	*	*
*mI'pf 2	*mI'pf 2	*	*	*mI'pf 1	*	*mI'pf 1	*	*
*Ipiano	*Ipiano	*	*	*Ipiano	*	*Ipiano	*	*
*ICklav	*ICklav	*	*	*ICklav	*	*ICklav	*	*
*clefF4	*clefF4	*	*	*clefG2	*	*clefG2	*	*
*k[f#]	*k[f#]	*	*	*k[f#]	*	*k[f#]	*	*
*G:	*G:	*	*	*G:	*	*G:	*	*
*M2/4	*M2/4	*	*	*M2/4	*	*M2/4	*	*
=1	=1	=1	=1	=1	=1	=1	=1	=1
!	!LO:MO:mod=!LO&colon;TX&colon;a&colon;i&colon;t=grazioso	!	!	!	!	!	!	!
!	!null	!	!	!	!	!	!	!
!	!	!	!	!	!	!LO:MO:mod=!LO&colon;TX&colon;a&colon;i&colon;t=grazioso	!	!
!	!	!	!	!	!	!LO:TX:b:i:t=grazioso	!	!
!	!LO:MO:mod=!LO&colon;TX&colon;a&colon;B&colon;t=Allegretto	!	!	!	!	!LO:MO:mod=!LO&colon;TX&colon;a&colon;B&colon;t=Allegretto	!	!
!	!LO:TX:a:B:t=Allegretto.	!	!	!	!	!LO:TX:a:B:t=Allegretto.	!LO:DY:b	!LO:DY:b
2GG 2GGG/	8r	p	p	2r	.	8b'\L	p	p
.	.	.	.	.	.	(<8qb/	.	.
.	8BL 8G 8D'\	.	.	.	.	8dd'\J)	.	.
.	8d 8B 8G'\	.	.	.	.	(8.g^>/L	.	.
.	8BJ 8G 8D'\	.	.	.	.	.	.	.
.	.	.	.	.	.	16b/Jk)	.	.
=2	=2	=2	=2	=2	=2	=2	=2	=2
2DD/	8r	.	.	2r	.	(16b/LL	.	.
.	.	.	.	.	.	16a'/JJ)	.	.
.	8cL 8F# 8D'\	.	.	.	.	4a^>/	.	.
.	8d 8c 8F#'\	.	.	.	.	.	.	.
.	8cJ 8F# 8D'\	.	.	.	.	(16a/LL	.	.
.	.	.	.	.	.	16g#X/JJ	.	.
=3	=3	=3	=3	=3	=3	=3	=3	=3
2DD/	8r	.	.	2r	.	8a'/L)	.	.
.	.	.	.	.	.	(8qa/	.	.
.	8cL 8F# 8D'\	.	.	.	.	8cc'/J)	.	.
.	8d 8c 8F#'\	.	.	.	.	(8.f#^>/L	.	.
.	8cJ 8F# 8D'\	.	.	.	.	.	.	.
.	.	.	.	.	.	16a/Jk)	.	.
=4	=4	=4	=4	=4	=4	=4	=4	=4
2GG 2GGG/	8r	.	.	2r	.	(16a/LL	.	.
.	.	.	.	.	.	16g'/JJ)	.	.
.	8B 8G 8D'\	.	.	.	.	4g^>/	.	.
.	4d 4B 4E^>\	.	.	.	.	.	.	.
.	.	.	.	.	.	(>16b/LL	.	.
.	.	.	.	.	.	16a/JJ	.	.
!LO:LB:g=original	!LO:LB:g=original	!	!	!LO:LB:g=original	!	!LO:LB:g=original	!	!
=5	=5	=5	=5	=5	=5	=5	=5	=5
(<4G 4GG/	8r	.	.	2r	.	8cc'\L)	.	.
.	.	.	.	.	.	8qb/	.	.
.	8d 8B'\	.	.	.	.	8dd'\J	.	.
4Fn 4FFn/	8r	.	.	.	.	(8.g#X^>/L	.	.
.	8d 8B'\	.	.	.	.	.	.	.
.	.	.	.	.	.	16b/Jk)	.	.
=6	=6	=6	=6	=6	=6	=6	=6	=6
2E 2EE/)	8r	.	.	2r	.	(16b/LL	.	.
.	.	.	.	.	.	16a'/JJ)	.	.
.	8c#XL 8A 8F#'\	.	.	.	.	4a^>/	.	.
.	8e 8c# 8A'\	.	.	.	.	.	.	.
.	8c#J 8A 8G'\	.	.	.	.	(16a/LL	.	.
.	.	.	.	.	.	16g#X/JJ	.	.
=7	=7	=7	=7	=7	=7	=7	=7	=7
(<4E-X 4EE-X/	8r	.	.	2r	.	8a'/L)	.	.
.	.	.	.	.	.	(8qa/	.	.
.	8cn 8A'\	.	.	.	.	8cc'/J)	.	.
4D 4DD/	8r	.	.	.	.	(8.f#^>/L	.	.
.	8c 8A'\	.	.	.	.	.	.	.
.	.	.	.	.	.	16a/Jk)	.	.
=8	=8	=8	=8	=8	=8	=8	=8	=8
2GG 2GGG/)	8r	.	.	2r	.	(16a/LL	.	.
.	.	.	.	.	.	16g'/JJ)	.	.
.	8B 8G 8D'\	.	.	.	.	4g^>/	.	.
.	4d 4B 4G^>\	.	.	.	.	.	.	.
.	.	.	.	.	.	(>16g/LL	f	.
.	.	.	.	.	.	16f#/JJ	.	.
!LO:LB:g=original	!LO:LB:g=original	!	!	!LO:LB:g=original	!	!LO:LB:g=original	!	!
=9	=9	=9	=9	=9	=9	=9	=9	=9
!	!	!LO:DY:b	!LO:DY:b	!	!	!	!	!
2GG 2GGG/	8r	f	f	8r	.	8g'\L)	.	f
.	8BL 8G 8D'\	.	.	8g'/	.	8ggJ 8b'\	.	.
.	8d 8B 8G'\	.	.	4g^/	.	8.ggL 8.b^\	.	.
.	8BJ 8G 8D'\	.	.	.	.	.	.	.
.	.	.	.	.	.	16ff#Jk 16dd\	.	.
=10	=10	=10	=10	=10	=10	=10	=10	=10
2C 2CC/	8r	.	.	8g'/	.	(16ff#LL 16dd\	.	.
.	.	.	.	.	.	16eeJJ 16cc\)	.	.
.	8cL 8G 8E'\	.	.	4g^/	.	4ee 4cc^\	.	.
.	8e 8c 8G'\	.	.	.	.	.	.	.
.	8cJ 8G 8E'\	.	.	8g/	.	(16eeLL 16cc\	.	.
.	.	.	.	.	.	16dd#X\JJ)	.	.
=11	=11	=11	=11	=11	=11	=11	=11	=11
2C 2CC/	8r	.	.	(16cc\LL	.	(16ee\LL	<	<
.	.	.	.	16b\	.	16dd#X\	.	.
.	8cL 8G 8E'\	.	.	16cc\	.	16ee\	.	.
.	.	.	.	16ddn\JJ	.	16ff#\JJ	.	.
.	8e 8c 8G'\	.	.	16ff#\LL	.	16aa\LL	.	[
.	.	.	.	16ee\	.	16gg\	[	>
.	8cJ 8G 8E'\	.	.	16dd\	.	16ff#\	.	.
.	.	.	.	16cc\JJ)	.	16ee\JJ)	.	.
=12	=12	=12	=12	=12	=12	=12	=12	=12
2GG 2GGG/	8r	.	.	(16cc\LL	.	(16ee\LL	.	.
.	.	.	.	16b'\JJ)	.	16ddn'\JJ)	.	.
.	8BL 8G 8D'\	.	.	4b^\	.	4dd^\	.	]
.	8d 8B 8G'\	.	.	.	.	.	.	.
!	!	!LO:DY:b	!LO:DY:b	!	!	!	!LO:DY:b	!LO:DY:b
.	8BJ 8G 8D'\	p	p	(<16b/LL	.	(>16dd\LL	p	p
.	.	.	.	16a/JJ	.	16cc\JJ	.	.
!LO:LB:g=original	!LO:LB:g=original	!	!	!LO:LB:g=original	!	!LO:LB:g=original	!	!
=13	=13	=13	=13	=13	=13	=13	=13	=13
(<4G 4GG/	8r	.	.	8g'/)	.	8b'\L)	.	.
.	.	.	.	.	.	(<8qb/	.	.
.	8dL 8B'\	.	.	8r	.	8dd'\J)	.	.
4Fn 4FFn/	8r	.	.	4r	.	(8.g#X/L	.	.
.	8dJ 8B'\	.	.	.	.	.	.	.
.	.	.	.	.	.	16b/Jk)	.	.
=14	=14	=14	=14	=14	=14	=14	=14	=14
2E 2EE/)	8r	.	.	2r	.	(16b/LL	.	.
.	.	.	.	.	.	16a'/JJ)	.	.
.	8c#XL 8A 8G'\	.	.	.	.	4a^>/	.	.
.	8e 8c# 8A'\	.	.	.	.	.	.	.
.	8c#J 8A 8G'\	.	.	.	.	(16a/LL	.	.
.	.	.	.	.	.	16g#X/JJ	.	.
=15	=15	=15	=15	=15	=15	=15	=15	=15
(<4E-X 4EE-X/	8r	.	.	2r	.	8a'/L)	.	.
.	.	.	.	.	.	(8qa/	.	.
.	8cnL 8A'\	.	.	.	.	8cc'/J)	.	.
4D 4DD/	8r	.	.	.	.	(8.f#^>/L	.	.
.	8cJ 8A'\	.	.	.	.	.	.	.
.	.	.	.	.	.	16a/Jk)	.	.
=16	=16	=16	=16	=16	=16	=16	=16	=16
2GG 2GGG/)	8r	.	.	4r	.	(16a/LL	.	.
.	.	.	.	.	.	16g'/JJ)	.	.
.	8B 8G 8D\	.	.	.	.	4g^>/	.	.
.	4d 4B 4G^>\	.	.	8r	.	.	.	.
!	!	!	!	!	!	!	!LO:DY:b	!LO:DY:b
.	.	.	.	(>16g/LL	.	(>16gg\LL	f	.
.	.	.	.	16f#/JJ	.	16ff#\JJ	.	.
!LO:PB:g=original	!LO:PB:g=original	!	!	!LO:PB:g=original	!	!LO:PB:g=original	!	!
=17	=17	=17	=17	=17	=17	=17	=17	=17
!	!	!LO:DY:b	!LO:DY:b	!	!	!	!	!
2GG 2GGG/	8r	f	f	8g'\L)	.	8gg'\L)	.	f
.	8BL 8G 8D'\	.	.	8ggJ 8b'\	.	8gggJ 8bb'\	.	.
.	8d 8B 8G'\	.	.	(8.ggL 8.b^>\	.	(8.gggL 8.bb^>\	.	.
.	8BJ 8G 8D'\	.	.	.	.	.	.	.
.	.	.	.	16ff#Jk 16dd\)	.	16fff#Jk 16ddd\)	.	.
=18	=18	=18	=18	=18	=18	=18	=18	=18
2GG 2GGG/	8r	.	.	(16ff#LL 16dd\	.	(16fff#LL 16ddd\	.	.
.	.	.	.	16eeJJ 16cc'\)	.	16eeeJJ 16ccc'\)	.	.
.	8cL 8G 8E'\	.	.	4ee 4cc^>\	.	4eee 4ccc^>\	.	.
.	8eJ 8c 8G'\	.	.	.	.	.	.	.
.	(>16c\LL	.	.	(16ee\LL	.	(16eee\LL	.	.
.	16B\JJ	.	.	16dd#X\JJ	.	16ddd#X\JJ	.	.
=19	=19	=19	=19	=19	=19	=19	=19	=19
8GGL 8GGG'/	16c\LL	.	<	16ee\LL	.	16eee\LL	<	<
.	16B\	.	.	16dd#X\	.	16ddd#X\	.	.
8GG'/	16c\	.	.	16ee\	.	16eee\	.	.
.	16dn\JJ	.	.	16ff#\JJ	.	16fff#\JJ	.	.
8C'/	16f#\LL	.	.	16aa\LL	.	16aaa\LL	.	.
.	16e\	.	.	16gg\	.	16ggg\	.	.
8GG'/J	16d\	.	.	16ff#\	.	16fff#\	.	.
.	16c\JJ)	.	[	16ee\JJ)	.	16eee\JJ)	[	[
=20	=20	=20	=20	=20	=20	=20	=20	=20
2GG 2GGG/	(16c\LL	.	.	(16ee\LL	.	(16eee\LL	.	.
.	16B'\J)	.	.	16ddn'\JJ)	.	16dddn'\JJ)	.	.
.	8B^>\J	.	.	4dd^\	.	4ddd^\	.	.
!	!	!LO:DY:b	!LO:DY:b	!	!	!	!	!
.	8dL 8B 8G'\	p	p	.	.	.	.	.
!	!	!	!	!	!	!	!LO:DY:b	!LO:DY:b
.	8BJ 8G 8D'\	.	.	8r	.	(>16dd\LL	p	p
.	.	.	.	.	.	16cc\JJ	.	.
=21	=21	=21	=21	=21	=21	=21	=21	=21
(<4GG/	8r	.	.	2r	.	8b'\L)	.	.
.	.	.	.	.	.	(<8qb/	.	.
.	8dL 8B 8G'\	.	.	.	.	8dd'\J)	.	.
4EE/	8c#X 8G'\	.	.	.	.	(8.g^>/L	.	.
.	8GJ 8E'\	.	.	.	.	.	.	.
.	.	.	.	.	.	16b/Jk)	.	.
=22	=22	=22	=22	=22	=22	=22	=22	=22
2EE-X/)	8r	.	.	2r	.	(16b/LL	.	.
.	.	.	.	.	.	16a'/JJ)	.	.
.	8cnL 8F#X 8E-X'\	.	.	.	.	4a^>/	.	.
.	8e-X 8c 8F#'\	.	.	.	.	.	.	.
.	8cJ 8F# 8E-'\	.	.	.	.	(>16a/LL	.	.
.	.	.	.	.	.	16g#X/JJ	.	.
!LO:LB:g=original	!LO:LB:g=original	!	!	!LO:LB:g=original	!	!LO:LB:g=original	!	!
=23	=23	=23	=23	=23	=23	=23	=23	=23
2DD/	8r	.	.	2r	.	8a'\L)	.	.
.	.	.	.	.	.	(<8qa/	.	.
.	8cL 8F# 8D'\	.	.	.	.	8cc'\J)	.	.
.	8d 8c 8F#'\	.	.	.	.	(8.f#/L	.	.
.	8cJ 8F# 8D'\	.	.	.	.	.	.	.
.	.	.	.	.	.	16a/Jk)	.	.
=24	=24	=24	=24	=24	=24	=24	=24	=24
2GG 2GGG/	8r	.	.	2r	.	(16a/LL	.	.
.	.	.	.	.	.	16g'/JJ)	.	.
.	8B 8G 8D'\	.	.	.	.	4g^>/	.	.
.	4d 4B 4G^>\	.	.	.	.	.	.	.
!	!	!	!	!	!	!	!LO:DY:b	!LO:DY:b
.	.	.	.	.	.	(16gg\LL	f	f
.	.	.	.	.	.	16ff#\JJ)	.	.
=25	=25	=25	=25	=25	=25	=25	=25	=25
!	!LO:MO:mod=!null:null	!	!	!	!	!LO:MO:mod=!null:null	!	!
!	!LO:TX:b:i:t=marcato.	!	!	!	!	!LO:TX:a:i:t=marcato	!	!
.	.	.	.	.	.	(<8qff#/	.	.
!	!	!LO:DY:b	!LO:DY:b	!	!	!	!	!
!	!LO:MO:mod=!LO&colon;TX&colon;a&colon;i&colon;t=marcato	!	!	!	!	!LO:MO:mod=!LO&colon;TX&colon;a&colon;i&colon;t=marcato	!	!
!	!null	!	!	!	!	!null	!	!
4.E 4.EE/	8r	f	f	8bL 8g/	.	(16ee\LL)	.	.
.	.	.	.	.	.	16dd#X\	.	.
.	(8c\	.	.	8a/J	.	16ee\	.	.
.	.	.	.	.	.	16ff#\JJ)	.	.
.	[4B\)	.	.	8.bL 8.g/	.	8.gg'\L	.	.
8E 8EE'/	.	.	.	.	.	.	.	.
.	.	.	.	16bJk 16g/	.	16gg'\Jk	.	.
=26	=26	=26	=26	=26	=26	=26	=26	=26
4.BB 4.BBB/	(8B\L]	.	.	8a'/	.	8gg 8dd#X'\	.	.
.	8c\J	.	.	4a^</	.	4ff# 4dd#^>\	.	.
.	[4B\)	.	.	.	.	.	.	.
8BB 8BBB'/	.	.	.	8a/	.	8dd#\	.	.
=27	=27	=27	=27	=27	=27	=27	=27	=27
.	.	.	.	.	.	(<8qff#/	.	.
4.E 4.EE/	(8B\L]	.	.	(<8bL 8g/	.	(16ee\LL)	.	.
.	.	.	.	.	.	16dd#X\	.	.
.	8c\J	.	.	8a/J	.	16ee\	.	.
.	.	.	.	.	.	16ff#\JJ	.	.
.	[4B\)	.	.	8bL 8g'/)	.	8gg'\L)	.	.
8E 8EE'/	.	.	.	8bJ 8g'/	.	8gg'\J	.	.
=28	=28	=28	=28	=28	=28	=28	=28	=28
4.BB 4.BBB/	(8B\L]	.	.	8a'/	.	8gg 8dd#X'\	.	.
.	8c\J	.	.	4.a^>/	.	4.ff# 4.dd#^>\	.	.
.	[4B\)	.	.	.	.	.	.	.
8BB 8BBB'/	.	.	.	.	.	.	.	.
=29	=29	=29	=29	=29	=29	=29	=29	=29
4.E 4.EE/	(8B\L]	.	.	(<8bL 8g/	.	8gg'\L	.	.
.	.	.	.	.	.	(<8qaa/	.	.
.	8c\J	.	.	8a^</J	.	(>16gg^>\L)	.	.
.	.	.	.	.	.	16ff#\JJ	.	.
.	[4B\)	.	.	4g/)	.	4ee\)	.	.
8E 8EE'/	.	.	.	.	.	.	.	.
!LO:LB:g=original	!LO:LB:g=original	!	!	!LO:LB:g=original	!	!LO:LB:g=original	!	!
=30	=30	=30	=30	=30	=30	=30	=30	=30
4.BB 4.BBB/	(8B\L]	.	.	8a 8f#'/	.	8dd#X'\	.	.
.	8c\J	.	.	4a 4f#^</	.	4ff# 4dd#^>\	.	.
.	[4B\)	.	.	.	.	.	.	.
8BB 8BBB'/	.	.	.	8a 8f#/	.	8dd#\	.	.
=31	=31	=31	=31	=31	=31	=31	=31	=31
4.BB 4.BBB/	(8B\L]	.	.	8aL 8f#'/	.	8b'\L	.	.
.	8c\J	.	.	8aJ 8f#'/	.	8b'\J	.	.
.	[4B\)	.	.	8aL 8f#^</	.	(>8b^>\L	.	.
8BB 8BBB'/	.	.	.	8aJ 8f#/	.	16cc#X\L	.	.
.	.	.	.	.	.	16dd#X\JJ)	.	.
=32	=32	=32	=32	=32	=32	=32	=32	=32
4E 4EE/	(8B\L]	.	.	4g 4e/	.	4ee\	.	.
.	8c\J)	.	.	.	.	.	.	.
4BB 4BBB^</	[4B 4A 4D#X^>\	.	.	4a 4f#^</	.	(>8.bbL 8.dd#X^>\	.	.
.	.	.	.	.	.	16aa\Jk	.	.
=33	=33	=33	=33	=33	=33	=33	=33	=33
4.E 4.EE/	(8B\L]	.	.	(<8bL 8g/	.	8gg\L)	.	.
.	.	.	.	.	.	(8qaa/	.	.
.	8c\J	.	.	8a^</J	.	(16gg^\L)	.	.
.	.	.	.	.	.	16ff#\JJ	.	.
.	[4B\)	.	.	4g/)	.	4ee\)	.	.
8E 8EE'/	.	.	.	.	.	.	.	.
=34	=34	=34	=34	=34	=34	=34	=34	=34
4.BB 4.BBB/	(8B\L]	.	.	8a 8f#'/	.	8dd#X'\	.	.
.	8c\J	.	.	4a 4f#^</	.	4ff# 4dd#^>\	.	.
.	[4B\)	.	.	.	.	.	.	.
8BB 8BBB'/	.	.	.	8a 8f#/	.	8dd#\	.	.
=35	=35	=35	=35	=35	=35	=35	=35	=35
4.BB 4.BBB/	(8B\L]	.	.	8aL 8f#'/	.	8b'\L	.	.
.	8c\J	.	.	8aJ 8f#'/	.	8b'\J	.	.
.	4B\)	.	.	8aL 8f#^</	.	(8b^>\L	.	.
!LO:SIC:s=8BB 8BBB/':v	!	!	!	!	!	!	!	!
8BB 8BBB/	.	.	.	8aJ 8f#/	.	16cc#X\L	.	.
.	.	.	.	.	.	16dd#X\JJ)	.	.
=36	=36	=36	=36	=36	=36	=36	=36	=36
4E 4EE/	4B 4G\	.	.	4b 4g 4e/	.	(8ee\L	<	<
.	.	.	.	.	.	16ff#\L	.	.
.	.	.	.	.	.	16gg\JJ	.	.
4r	4r	.	.	(16a\LL	.	16aa\LL	.	.
.	.	.	.	16b\	.	16bb\	.	.
.	.	.	.	16cc#X\	.	16ccc#X\	.	.
.	.	.	.	16dd#X\JJ)	.	16ddd#X\JJ)	[	[
!LO:LB:g=original	!LO:LB:g=original	!	!	!LO:LB:g=original	!	!LO:LB:g=original	!	!
=37	=37	=37	=37	=37	=37	=37	=37	=37
!	!	!LO:DY:b	!LO:DY:b	!	!	!	!LO:DY:b	!LO:DY:b
8EL 8EE'/	8r	ff	ff	16ee\LL	.	16eee\LL	ff	ff
.	.	.	.	16dd#X\	.	16ddd#X\	.	.
8BBJ 8BBB'/	8e 8B 8G'\	.	.	16ee\	.	16eee\	.	.
.	.	.	.	16ff#\JJ	.	16fff#\JJ	.	.
8EL 8EE'/	(16BLL 16G\	.	.	8.gg\L	.	8.ggg\L	.	.
.	16A#X\	.	.	.	.	.	.	.
8BBJ 8BBB'/	16B 16G\	.	.	.	.	.	.	.
.	16c\JJ)	.	.	16gg\Jk	.	16ggg\Jk	.	.
=38	=38	=38	=38	=38	=38	=38	=38	=38
8D#XL 8DD#X'/	8B 8G'\	.	.	8gg 8dd#X'\	.	8ggg 8ddd#X'\	.	.
8BBJ 8BBB'/	4c 4An^>\	.	.	4ff# 4dd#^>\	.	4fff# 4ddd#^>\	.	.
8D#L 8DD#'/	.	.	.	.	.	.	.	.
8BBJ 8BBB'/	8d#X 8B 8A\	.	.	8dd#\	.	8ddd#\	.	.
=39	=39	=39	=39	=39	=39	=39	=39	=39
.	.	.	.	(<8qff#/	.	(<8qfff#/	.	.
8EL 8EE'/	8r	.	.	(16ee\LL)	.	(16eee\LL)	.	.
.	.	.	.	16dd#X\	.	16ddd#X\	.	.
8BBJ 8BBB'/	8e 8B 8G'\	.	.	16ee\	.	16eee\	.	.
.	.	.	.	16ff#\JJ)	.	16fff#\JJ)	.	.
8EL 8EE'/	(>16BLL 16G\	.	.	8gg'\L	.	8ggg'\L	.	.
.	16A#X\	.	.	.	.	.	.	.
8BBJ 8BBB'/	16B 16G\	.	.	8gg'\J	.	8ggg'\J	.	.
.	16c\JJ)	.	.	.	.	.	.	.
=40	=40	=40	=40	=40	=40	=40	=40	=40
8D#XL 8DD#X'/	8c 8An\	.	.	8gg 8dd#X 8a'\	.	8ggg 8ddd#X 8aa'\	.	.
8BBJ 8BBB'/	4d#X 4c 4A\	.	.	4.ff# 4.dd# 4.a^>\	.	4.fff# 4.ddd# 4.aa^>\	.	.
8D#L 8DD#'/	.	.	.	.	.	.	.	.
8BBJ 8BBB'/	8d# 8B 8A\	.	.	.	.	.	.	.
=41	=41	=41	=41	=41	=41	=41	=41	=41
8EL 8EE'/	8r	.	.	8gg'\L	.	8ggg'\L	.	.
.	.	.	.	(<8qaa/	.	(<8qaaa/	.	.
8BBJ 8BBB'/	8c 8A'\	.	.	16gg^>\L)	.	16ggg^>\L)	.	.
.	.	.	.	16ff#\JJ	.	16fff#\JJ	.	.
8EL 8EE'/	(8eL 8B 8G^>\	.	.	4ee\	.	4eee\	.	.
8BBJ 8BBB'/	16dn\L	.	.	.	.	.	.	.
.	16c\JJ)	.	.	.	.	.	.	.
=42	=42	=42	=42	=42	=42	=42	=42	=42
8F#L 8FF#'/	8B 8A'\	.	.	8dd#X'\	.	8ddd#X'\	.	.
8BBJ 8BBB'/	4c 4A^>\	.	.	4ff# 4dd#^>\	.	4fff# 4ddd#^>\	.	.
8F#L 8FF#'/	.	.	.	.	.	.	.	.
8BBJ 8BBB'/	8B 8A\	.	.	8ff# 8dd#\	.	8ddd#\	.	.
=43	=43	=43	=43	=43	=43	=43	=43	=43
8D#XL 8DD#X'/	8r	.	.	8bL 8a'\	.	8bbL 8aa'\	.	.
8BBJ 8BBB'/	8f#L 8d#X 8A'\	.	.	8bJ 8a'\	.	8bbJ 8aa'\	.	.
8D#L 8DD#'/	8r	.	.	(8bL 8a^>\	.	(8bbL 8aa^>\	.	.
8BBJ 8BBB'/	8f#J 8d# 8A'\	.	.	16cc#X\L	.	16ccc#X\L	.	.
.	.	.	.	16dd#X\JJ)	.	16ddd#X\JJ)	.	.
!LO:LB:g=original	!LO:LB:g=original	!	!	!LO:LB:g=original	!	!LO:LB:g=original	!	!
=44	=44	=44	=44	=44	=44	=44	=44	=44
8EL 8EE'/	8r	.	.	4ee 4b 4g\	.	4eee 4bb 4gg\	.	.
8BBJ 8BBB'/	8e 8B 8G'\	.	.	.	.	.	.	.
8EL 8EE'/	4d#X 4B 4A^>\	.	.	8.b^>\L	.	8.bbbL 8.bb^>\	.	.
8BBJ 8BBB'/	.	.	.	.	.	.	.	.
.	.	.	.	16aa\Jk	.	16aaa\Jk	.	.
=45	=45	=45	=45	=45	=45	=45	=45	=45
8EL 8EE/	8r	.	.	8gg\L	.	8ggg\L	.	.
.	.	.	.	(<8qaa/	.	(<8qaaa/	.	.
8BBJ 8BBB/	8c 8A'\	.	.	(16gg^>\L)	.	(16ggg^>\L)	.	.
.	.	.	.	16ff#\JJ	.	16fff#\JJ	.	.
8EL 8EE/	(>8eL 8B 8G^>\	.	.	4ee\)	.	4eee\)	.	.
8BBJ 8BBB/	16dn\L	.	.	.	.	.	.	.
.	16c\JJ	.	.	.	.	.	.	.
=46	=46	=46	=46	=46	=46	=46	=46	=46
8D#XL 8DD#X/	8B 8A'\)	.	.	8dd#X'\	.	8ddd#X'\	.	.
8BBJ 8BBB/	4c 4A^>\	.	.	4ff# 4dd#^>\	.	4fff# 4ddd#^>\	.	.
8D#L 8DD#'/	.	.	.	.	.	.	.	.
8BBJ 8BBB'/	8B 8A\	.	.	8ff# 8dd#\	.	8ddd#\	.	.
=47	=47	=47	=47	=47	=47	=47	=47	=47
8D#XL 8DD#X'/	8r	.	.	8bL 8a'\	.	8bbL 8aa'\	.	.
8BBJ 8BBB'/	8f# 8d#X 8A'\	.	.	8bJ 8a'\	.	8bbJ 8aa'\	.	.
8D#L 8DD#'/	8r	.	.	(8bL 8a^>\	.	(8bbL 8aa^>\	.	.
8BBJ 8BBB'/	8f# 8d# 8A'\	.	.	16cc#X\L	.	16ccc#X\L	.	.
.	.	.	.	16dd#X\JJ)	.	16ddd#X\JJ)	.	.
=48	=48	=48	=48	=48	=48	=48	=48	=48
!	!	!LO:HP:t=dim. e rit. molto	!LO:HP:t=dim. e rit. molto	!	!	!	!LO:HP:t=dim. e rit. molto	!LO:HP:t=dim. e rit. molto
4E 4EE/	(>4B 4G\	>	>	8eeL 8g\	.	(8eeeL 8gg\	>	>
.	.	.	.	8dd#X\J	.	8ddd#X\J	.	.
4FF# 4FFF#/	4dn 4A 4D\	.	.	8ddnL 8a\	.	8dddnL 8aa\	.	.
.	.	.	.	16cc#X\L	.	16ccc#X\L	.	.
.	.	.	.	16ccn\JJ	.	16cccn\JJ)	.	.
=49	=49	=49	=49	=49	=49	=49	=49	=49
4GG 4GGG/	4B 4G 4D\	.	.	4dd 4g\	.	(8bbL 8gg\	.	.
.	.	.	.	.	.	8aa#X\J	.	.
4AA 4AAA/	4c#X 4G 4E\)	.	.	4cc#X 4g\	.	8aanL 8ee\	.	.
.	.	.	.	.	.	16gg#X\L	.	.
.	.	.	.	.	.	16ggn\JJ)	.	.
=50	=50	=50	=50	=50	=50	=50	=50	=50
2D 2DD/	(>8AL 8F#\	.	.	8ddL 8a\	.	(8ff#\L	.	.
.	8B-XJ 8G\	.	.	8cc#XJ 8g\	.	8ee\J	.	.
.	4cn 4A\)	.	.	4a 4f#/	.	8dd\L	.	.
.	.	.	.	.	.	16cc#X\L	.	.
.	.	.	.	.	.	16ccn\JJ)	.	.
!LO:PB:g=original	!LO:PB:g=original	!	!	!LO:PB:g=original	!	!LO:PB:g=original	!	!
=51	=51	=51	=51	=51	=51	=51	=51	=51
!	!LO:TX:a:i:t=a tempo	!LO:DY:b	!LO:DY:b	!	!	!	!	!
8GGG/	8Bn'\L	p	pp	8r	.	8r	.	.
!	!	!	!	!	!	!LO:TX:a:i:t=a tempo	!	!
.	(<8qB/	.	.	.	.	.	.	.
!	!	!	!	!	!	!	!LO:DY:b	!LO:DY:b
4GG/	8d'\J)	.	.	8ddL 8b'\	.	(16bb\LL	pp	pp
.	.	.	.	.	.	16ddd\J	.	.
.	(8.G^>\L	.	.	8bJ 8g'\	.	16gg\L	.	.
.	.	.	.	.	.	16bb\	.	.
8GG/	.	.	.	8r	.	16dd\	.	.
.	16B\Jk)	.	.	.	.	16gg\JJ)	.	.
=52	=52	=52	=52	=52	=52	=52	=52	=52
*^	*	*	*	*	*	*	*	*
8DD/	2DD\	(16B\LL	.	.	8r	.	8r	.	.
.	.	16A'\JJ)	.	.	.	.	.	.	.
4D/	.	4A\	.	.	8ddL 8cc'\	.	(16ccc\LL	.	.
.	.	.	.	.	.	.	16ddd\J	.	.
.	.	.	.	.	8ccJ 8a'\	.	16ff#\L	.	.
.	.	.	.	.	.	.	16ccc\	.	.
8D/	.	(16A\LL	.	.	8r	.	16dd\	.	.
.	.	16G#X\JJ	.	.	.	.	16ff#\JJ)	.	.
=53	=53	=53	=53	=53	=53	=53	=53	=53	=53
8DD/	2DD\	8A'\L)	.	.	8r	.	8r	.	.
.	.	(<8qA/	.	.	.	.	.	.	.
4D/	.	8c'\J)	.	.	8eeL 8cc'\	.	(16ccc\LL	.	.
.	.	.	.	.	.	.	16eee\J	.	.
.	.	(8.F#^>\L	.	.	8ccJ 8a'\	.	16ff#\L	.	.
.	.	.	.	.	.	.	16ccc\	.	.
8D/	.	.	.	.	8r	.	16dd\	.	.
.	.	16A\Jk)	.	.	.	.	16ff#\JJ)	.	.
*v	*v	*	*	*	*	*	*	*	*
=54	=54	=54	=54	=54	=54	=54	=54	=54
8GGG/	(16A\LL	.	.	8r	.	8r	.	.
.	16G'\JJ)	.	.	.	.	.	.	.
4GG/	4G\	.	.	8ddL 8b'\	.	(16bb\LL	.	.
.	.	.	.	.	.	16ddd\J	.	.
.	.	.	.	8bJ 8g'\	.	16gg\L	.	.
.	.	.	.	.	.	16bb\	.	.
8GG/	(16B\LL	.	.	8r	.	16dd\	.	.
.	16A\JJ	.	.	.	.	16gg\JJ)	.	.
=55	=55	=55	=55	=55	=55	=55	=55	=55
*^	*	*	*	*	*	*	*	*
8GG\L	4GG/	8B'\L)	.	.	8r	.	8r	.	.
.	.	(<8qB/	.	.	.	.	.	.	.
8G\J	.	8d'\J)	.	.	8ddL 8b'\	.	(16bb\LL	.	.
.	.	.	.	.	.	.	16ddd\J	.	.
8FFn\L	4FFn/	(8.G#X^>\L	.	.	8bJ 8g#X'\	.	16gg#X\L	.	.
.	.	.	.	.	.	.	16bb\	.	.
8Fn\J	.	.	.	.	8r	.	16dd\	.	.
.	.	16B\Jk)	.	.	.	.	16gg#\JJ)	.	.
=56	=56	=56	=56	=56	=56	=56	=56	=56	=56
8EE/	2EE\	(16BLL 16Gn\	.	.	8r	.	8r	.	.
.	.	16A'\JJ)	.	.	.	.	.	.	.
4E/	.	4A 4G\	.	.	8eeL 8cc#X'\	.	(16ccc#X\LL	.	.
.	.	.	.	.	.	.	16eee\J	.	.
.	.	.	.	.	8cc#J 8gn'\	.	16ggn\L	.	.
.	.	.	.	.	.	.	16ccc#\	.	.
8E/	.	(16A\LL	.	.	8r	.	16ee\	.	.
.	.	16G#X\JJ	.	.	.	.	16gg\JJ)	.	.
!LO:LB:g=original	!LO:LB:g=original	!LO:LB:g=original	!	!	!LO:LB:g=original	!	!LO:LB:g=original	!	!
=57	=57	=57	=57	=57	=57	=57	=57	=57	=57
4EE-X/	8EE-\L	8A'\L)	.	.	8r	.	8r	.	.
.	.	(<8qA/	.	.	.	.	.	.	.
.	8E-X\J	8c'\J)	.	.	8ee-XL 8ccn'\	.	(16cccn\LL	.	.
.	.	.	.	.	.	.	16eee-X\J	.	.
4DD/	8DD\L	(8.F#\L	.	.	8ccJ 8a'\	.	16ff#\L	.	.
.	.	.	.	.	.	.	16ccc\	.	.
.	8D\J	.	.	.	8r	.	16dd\	.	.
.	.	16A\Jk)	.	.	.	.	16ff#\JJ)	.	.
=58	=58	=58	=58	=58	=58	=58	=58	=58	=58
8GGG/	2GGG\	(16A\LL	.	.	8r	.	8r	.	.
.	.	16G\JJ)	.	.	.	.	.	.	.
4GG/	.	4G\	.	.	8ddL 8b'\	.	(16bb\LL	.	.
.	.	.	.	.	.	.	16ddd\J	.	.
.	.	.	.	.	8bJ 8g'\	.	16gg\L	.	.
.	.	.	.	.	.	.	16bb\	.	.
8GG/	.	(16G\LL	.	.	8r	.	16dd\	.	.
.	.	16F#\JJ	.	.	.	.	16gg\JJ)	.	.
*v	*v	*	*	*	*	*	*	*	*
=59	=59	=59	=59	=59	=59	=59	=59	=59
!	!	!	!	!	!	!	!LO:DY:b	!LO:DY:b
2GG 2GGG/	8G'\L)	.	.	8g'/L	.	8r	f	f
!	!	!LO:DY:b	!LO:DY:b	!	!	!	!	!
.	8B 8G 8D'\	mf	mf	8g'/J	.	8gg 8b'\	.	.
.	8d 8B 8G'\	.	.	4g^</	.	8.ggL 8.b^>\	.	.
.	8BJ 8G 8D'\	.	.	.	.	.	.	.
.	.	.	.	.	.	16ff#Jk 16dd\	.	.
=60	=60	=60	=60	=60	=60	=60	=60	=60
2C 2CC/	8r	.	.	8g'/	.	(16ff#LL 16dd\	.	.
.	.	.	.	.	.	16eeJJ 16cc\)	.	.
.	8cL 8G 8E'\	.	.	4g^/	.	4ee 4cc^\	.	.
.	8e 8c 8G'\	.	.	.	.	.	.	.
.	8cJ 8G 8E'\	.	.	8g/	.	16eeLL 16cc\	.	.
.	.	.	.	.	.	16dd#X\JJ	.	.
=61	=61	=61	=61	=61	=61	=61	=61	=61
!	!	!	!	!	!LO:MO:mod=*null:null	!	!	!
*	*	*	*	*	*below	*	*	*
2C 2CC/	8r	.	.	(16cc\LL	2	(16ee\LL	<	<
.	.	.	.	16b\	3	16dd#X\	.	.
.	8cL 8G 8E'\	.	.	16cc\	.	16ee\	.	.
.	.	.	.	16ddn\JJ	.	16ff#\JJ	[	[
.	8e 8c 8G'\	.	.	16ff#\LL	2	16aa\LL	>	>
.	.	.	.	16ee\	1	16gg\	.	.
.	8cJ 8G 8E'\	.	.	16dd\	.	16ff#\	.	.
.	.	.	.	16cc\JJ)	.	16ee\JJ)	]	]
=62	=62	=62	=62	=62	=62	=62	=62	=62
2GG 2GGG/	8r	.	.	(16cc\LL	.	(16ee\LL	.	.
.	.	.	.	16b'\JJ)	.	16ddn'\JJ)	.	.
.	8B 8G 8D'\	.	.	4b^>\	.	4dd^>\	.	.
.	4d 4B 4G^>\	.	.	.	.	.	.	.
.	.	.	.	(16b\LL	.	(16dd\LL	>	>
.	.	.	.	16a\JJ	.	16cc\JJ	]]	]]
=63	=63	=63	=63	=63	=63	=63	=63	=63
!	!	!LO:DY:b	!LO:DY:b	!	!	!	!LO:DY:b	!LO:DY:b
(<4G 4GG/	8r	p	p	8g'/)	.	8dd\L)	p	p
.	.	.	.	.	.	(<8qb/	.	.
.	8dL 8B'\	.	.	8r	.	8dd'\J)	.	.
4Fn 4FFn/	8r	.	.	4r	.	(8.g#X/L	.	.
.	8dJ 8B'\	.	.	.	.	.	.	.
.	.	.	.	.	.	16b/Jk)	.	.
!LO:LB:g=original	!LO:LB:g=original	!	!	!LO:LB:g=original	!	!LO:LB:g=original	!	!
=64	=64	=64	=64	=64	=64	=64	=64	=64
2E 2EE/)	8r	.	.	2r	.	(16b/LL	.	.
.	.	.	.	.	.	16a'/JJ)	.	.
.	8c#XL 8A 8G'\	.	.	.	.	4a/	.	.
.	8e 8c# 8A'\	.	.	.	.	.	.	.
.	8c#J 8A 8G'\	.	.	.	.	(16a/LL	.	.
.	.	.	.	.	.	16g#X/JJ	.	.
=65	=65	=65	=65	=65	=65	=65	=65	=65
(4E-X 4EE-X/	8r	.	.	2r	.	8a'/L)	.	.
.	.	.	.	.	.	(<8qa/	.	.
.	8cnL 8A'\	.	.	.	.	8cc'/J)	.	.
4D 4DD/	8r	.	.	.	.	(8.f#/L	.	.
.	8cJ 8A'\	.	.	.	.	.	.	.
.	.	.	.	.	.	16a/Jk)	.	.
=66	=66	=66	=66	=66	=66	=66	=66	=66
2GG 2GGG/)	8r	.	.	4r	.	(16a/LL	.	.
.	.	.	.	.	.	16g'/JJ)	.	.
.	8B 8G 8D'\	.	.	.	.	4g/	.	.
.	4d 4B 4G^>\	.	.	8r	.	.	.	.
!	!	!	!	!	!	!	!LO:DY:b	!LO:DY:b
.	.	.	.	(<16g/LL	.	(>16gg\LL	f	.
.	.	.	.	16f#/JJ	.	16ff#\JJ	.	.
=67	=67	=67	=67	=67	=67	=67	=67	=67
!	!	!LO:DY:b	!LO:DY:b	!	!	!	!	!
2GG 2GGG/	8r	f	f	8g'\L)	.	8gg'\L)	.	f
.	8BL 8G 8D'\	.	.	8ggJ 8b'\	.	8gggJ 8bb'\	.	.
.	8d 8B 8G'\	.	.	8.ggL 8.b^>\	.	8.gggL 8.bb^>\	.	.
.	8BJ 8G 8D'\	.	.	.	.	.	.	.
.	.	.	.	16ff#Jk 16dd\	.	16fff#Jk 16ddd\	.	.
=68	=68	=68	=68	=68	=68	=68	=68	=68
2GG 2GGG/	8r	.	.	(16ff#LL 16dd\	.	(16fff#LL 16ddd\	.	.
.	.	.	.	16eeJJ 16cc'\)	.	16eeeJJ 16ccc'\)	.	.
.	8cL 8G 8E'\	.	.	4ee 4cc^>\	.	4eee 4ccc^>\	.	.
.	8eJ 8c 8G'\	.	.	.	.	.	.	.
.	(>16c\LL	.	.	(16ee\LL	.	(16eee\LL	.	.
.	16B\JJ	.	.	16dd#X\JJ	.	16ddd#X\JJ	.	.
=69	=69	=69	=69	=69	=69	=69	=69	=69
8GGL 8GGG'/	16c\LL	<	<	16ee\LL	.	16eee\LL	.	<
.	16B\	.	.	16dd#X\	.	16ddd#X\	.	.
8GG'/	16c\	.	.	16ee\	.	16eee\	.	.
.	16dn\JJ	[	[	16ff#\JJ	.	16fff#\JJ	.	[
8C'/	16e\LL	>	>	16aa\LL	.	16aaa\LL	.	>
.	16d\	.	.	16gg\	.	16ggg\	.	.
8GG'/J	16c\	.	.	16ff#\	.	16fff#\	.	.
.	16B\JJ)	]	]	16ee\JJ)	.	16eee\JJ)	.	]
!LO:LB:g=original	!LO:LB:g=original	!	!	!LO:LB:g=original	!	!LO:LB:g=original	!	!
=70	=70	=70	=70	=70	=70	=70	=70	=70
2GG 2GGG/	(16c\LL	.	.	(16ee\LL	.	(16eee\LL	.	.
.	16B\J)	.	.	16ddn'\JJ)	.	16dddn'\JJ)	.	.
.	8B'\J	.	.	4dd\	.	4ddd\	.	.
!	!	!LO:DY:b	!LO:DY:b	!	!	!	!	!
.	8dL 8B 8G'\	p	p	.	.	.	.	.
!	!	!	!	!	!	!	!LO:DY:b	!LO:DY:b
.	8BJ 8G 8D'\	.	.	8r	.	(16dd\LL	p	p
.	.	.	.	.	.	16cc\JJ	.	.
=71	=71	=71	=71	=71	=71	=71	=71	=71
(<4GG/	8r	.	.	2r	.	8b'\L)	.	.
.	.	.	.	.	.	(<8qb/	.	.
.	8dL 8B 8G'\	.	.	.	.	8dd'\J)	.	.
4EE/	8c#X 8G'\	.	.	.	.	(8.g/L	.	.
.	8GJ 8E'\	.	.	.	.	.	.	.
.	.	.	.	.	.	16b/Jk)	.	.
=72	=72	=72	=72	=72	=72	=72	=72	=72
2EE-X/)	8r	.	.	2r	.	(16b/LL	.	.
.	.	.	.	.	.	16a'/JJ)	.	.
.	8cnL 8F# 8E-X'\	.	.	.	.	4a/	.	.
.	8e-X 8c 8F#'\	.	.	.	.	.	.	.
.	8cJ 8F# 8E-'\	.	.	.	.	(<16a/LL	.	.
.	.	.	.	.	.	16g#X/JJ	.	.
=73	=73	=73	=73	=73	=73	=73	=73	=73
2DD/	8r	.	.	2r	.	8a'\L)	.	.
.	.	.	.	.	.	(<8qa/	.	.
.	8cL 8F# 8D'^>\	.	.	.	.	8cc'\J)	.	.
.	8d 8c 8F#'\	.	.	.	.	(8.f#/L	.	.
.	8cJ 8F# 8D'^>\	.	.	.	.	.	.	.
.	.	.	.	.	.	16a/Jk)	.	.
=74	=74	=74	=74	=74	=74	=74	=74	=74
!	!	!LO:HP:t=poco a poco cresc. molto	!LO:HP:t=poco a poco cresc. molto	!	!	!	!LO:HP:t=poco a poco cresc. molto	!LO:HP:t=poco a poco cresc. molto
2GG 2GGG/	8r	<	<	2r	.	(16a/LL	<	<
.	.	.	.	.	.	16g/J)	.	.
.	8dL 8B 8G'^>\	.	.	.	.	8g'^>/J	.	.
.	8c#X 8B-X 8G'\	.	.	.	.	(16f#/LL	.	.
.	.	.	.	.	.	16e/J)	.	.
.	8cnJ 8A 8G'^>\	.	.	.	.	8e'^>/J	.	.
=75	=75	=75	=75	=75	=75	=75	=75	=75
2GG 2GGG/	8r	.	.	2r	.	(16b/LL	.	.
.	.	.	.	.	.	16a/J)	.	.
.	8fnL 8d 8G'^>\	.	.	.	.	8a'^>/J	.	.
.	8e 8c#X 8G'\	.	.	.	.	(16g/LL	.	.
.	.	.	.	.	.	16f#/J)	.	.
.	8e-XJ 8cn 8G'^>\	.	.	.	.	8f#'^>/J	.	.
=76	=76	=76	=76	=76	=76	=76	=76	=76
2GG 2GGG/	8r	.	.	8r	.	(16cc\LL	.	.
.	.	.	.	.	.	16b\J)	.	.
.	8G'^>\L	.	.	8gL 8e'/	.	8b'^>\J	.	.
.	8G'\	.	.	8f#X 8d#X'/	.	(16a/LL	.	.
.	.	.	.	.	.	16g#X/J)	.	.
.	8G'^>\J	.	.	8fnJ 8dn'/	.	8g#'^>/J	.	.
!LO:LB:g=original	!LO:LB:g=original	!	!	!LO:LB:g=original	!	!LO:LB:g=original	!	!
=77	=77	=77	=77	=77	=77	=77	=77	=77
2GG 2GGG/	8r	.	.	8r	.	(16ee\LL	.	.
.	.	.	.	.	.	16dd\J)	.	.
.	8dL 8G'^>\	.	<	8b-XL 8g'/	.	8dd'^>\J	<	<
.	8d 8G'\	.	.	8a 8f#'/	.	(16cc#X\LL	.	.
.	.	.	.	.	.	16dd\	.	.
.	8dJ 8G'^>\	.	.	8ccnJ 8a/	.	16ee\	.	.
.	.	.	[	.	.	16ff#\JJ)	[	[
=78	=78	=78	=78	=78	=78	=78	=78	=78
!	!	!	!	!	!	!	!LO:DY:b	!LO:DY:b
2GG 2GGG/	8r	f	f	8a'/L	.	(16aa\LL	f	f
.	.	.	.	.	.	16gg\J)	.	.
.	8dL 8B 8G'^>\	.	.	8g'^>/	.	8gg'^>\J	.	.
.	8c#X 8B-X 8G'\	.	.	8g'/	.	(16ff#\LL	.	.
.	.	.	.	.	.	16ee\J)	.	.
.	8cnJ 8A 8G'^>\	.	.	8g'^>/J	.	8ee'^>\J	.	.
=79	=79	=79	=79	=79	=79	=79	=79	=79
2GG 2GGG/	8r	.	.	8b'\L	.	(16bb\LL	.	.
.	.	.	.	.	.	16aa\J)	.	.
.	8dL 8B 8G'^>\	.	.	8b'^>\J	.	8aa'^>\J	.	.
.	8e 8c#X 8G'\	.	.	8b-X'/L	.	(16gg\LL	.	.
.	.	.	.	.	.	16ff#\J)	.	.
.	8e-XJ 8cn 8G'^>\	.	.	8a'^>/J	.	8ff#'^>\J	.	.
=80	=80	=80	=80	=80	=80	=80	=80	=80
2GG 2GGG/	8r	.	.	8cc'\L	.	(16ccc\LL	.	.
.	.	.	.	.	.	16bb\J)	.	.
.	8gL 8e 8G'^>\	.	.	8bn'^>\J	.	8bb'^>\J	.	.
.	8f# 8d#X 8G'\	.	.	8cc'\L	.	(16aa\LL	.	.
.	.	.	.	.	.	16gg#X\J)	.	.
.	8fnJ 8dn 8G'^>\	.	.	8b'^>\J	.	8gg#'^>\J	.	.
=81	=81	=81	=81	=81	=81	=81	=81	=81
2GG 2GGG/	8r	.	.	8ee'\L	.	(16eee\LL	.	.
.	.	.	.	.	.	16ddd\J)	.	.
.	8dL 8G'^>\	.	.	8ddJ 8b-X 8g'\	.	8ddd'^>\J	.	.
.	8d 8G'\	.	.	8aL 8f#'/	.	(16ccc#X\LL	.	.
.	.	.	.	.	.	16ddd\	.	.
.	8dJ 8G'^>\	.	.	8ccnJ 8a'/	.	16eee\	.	.
.	.	.	.	.	.	16fff#\JJ)	.	.
=82	=82	=82	=82	=82	=82	=82	=82	=82
!	!	!LO:DY:b	!LO:DY:b	!	!	!	!LO:DY:b	!LO:DY:b
2GG 2GGG/	8r	ff	ff	2ryy	.	16aaaLL 16aa\	ff	ff
.	.	.	.	.	.	16gg< 16g</	.	.
.	8dL 8B 8G'^>\	.	.	.	.	8ggg^\JJ 8gg</ 8g<^/	.	.
.	8c#X 8B-X 8G'\	.	.	.	.	16fff#LL 16ff#\	.	.
.	.	.	.	.	.	16ee< 16e</	.	.
.	8cnJ 8A 8G'^>\	.	.	.	.	8eee^\JJ 8ee</ 8e<^/	.	.
=83	=83	=83	=83	=83	=83	=83	=83	=83
2GG 2GGG/	8r	.	.	2ryy	.	16aaaLL 16aa\	.	.
.	.	.	.	.	.	16gg< 16g</	.	.
.	8dL 8Bn 8G'^\	.	.	.	.	8ggg^\JJ 8gg</ 8g<^/	.	.
.	8c#X 8B-X 8G'\	.	.	.	.	16fff#LL 16ff#\	.	.
.	.	.	.	.	.	16ee< 16e</	.	.
.	8cnJ 8A 8G'^\	.	.	.	.	8eee^\JJ 8ee</ 8e<^/	.	.
!LO:LB:g=original	!LO:LB:g=original	!	!	!LO:LB:g=original	!	!LO:LB:g=original	!	!
=84	=84	=84	=84	=84	=84	=84	=84	=84
2GG 2GGG/	8r	.	.	2ryy	.	16aaaLL 16aa\	.	.
.	.	.	.	.	.	16gg< 16g</	.	.
.	8dL 8Bn 8G'^>\	.	.	.	.	8ggg^\JJ 8gg</ 8g<^/	.	.
.	8c#X 8B-X 8G'\	.	.	.	.	16fff#LL 16ff#\	.	.
.	.	.	.	.	.	16ee< 16e</	.	.
.	8cnJ 8A 8G'^>\	.	.	.	.	8eee^\JJ 8ee</ 8e<^/	.	.
=85	=85	=85	=85	=85	=85	=85	=85	=85
2GG 2GGG/	8r	.	.	2ryy	.	16aaaLL 16aa\	.	.
.	.	.	.	.	.	16gg< 16g</	.	.
.	8dL 8Bn 8G'^>\	.	.	.	.	8ggg^\JJ 8gg</ 8g<^/	.	.
.	8c#X 8B-X 8G'\	.	.	.	.	16fff#LL 16ff#\	.	.
.	.	.	.	.	.	16ee< 16e</	.	.
.	8cnJ 8A 8G'^>\	.	.	.	.	8eee^\JJ 8ee</ 8e<^/	.	.
=86	=86	=86	=86	=86	=86	=86	=86	=86
*	*	*	*	*	*	*8va	*	*
.	.	.	.	(<8qaa/	.	(<8qaaa/	<	<
8GG 8GGG'^>/	8d 8Bn 8G'^>\	.	<	2ggTT\)	.	2gggTT\)	.	.
8r	8r	.	.	.	.	.	.	.
8EE 8EEE'^>/	8e 8B 8G'^>\	.	.	.	.	.	.	.
8r	8r	.	.	.	.	.	.	.
=87	=87	=87	=87	=87	=87	=87	=87	=87
8GG 8GGG'^>/	8d 8B 8G'^>\	.	.	4gg\	.	4ggg\	.	.
8r	8r	.	.	.	.	.	.	.
!	!	!	!	!	!LO:MO:mod=*null:null	!	!	!
*	*	*	*	*	*below	*	*	*
!	!	!	!	!LO:TUP:a	!	!LO:TUP:a	!	!
8EE 8EEE'^>/	8e 8B 8G'^>\	.	.	28gg\LL	1	28ggg\LL	.	.
.	.	.	[	28aa\	4	28aaa\	.	.
.	.	.	.	28bb\	.	28bbb\	.	.
.	.	.	.	28ccc\	.	28cccc\	.	.
8r	8r	.	.	.	.	.	.	.
.	.	.	.	28ddd\	.	28dddd\	.	.
.	.	.	.	28eee\	.	28eeee\	.	.
.	.	.	.	28fff#\JJ	.	28ffff#\JJ	[	[
=88	=88	=88	=88	=88	=88	=88	=88	=88
!	!	!LO:DY:b	!LO:DY:b	!	!	!	!LO:DY:b	!LO:DY:b
8GG 8GGG'/	8g 8d 8B 8G'\	sf	sf	8ggg'\	.	8gggg'\	sf	sf
*	*	*	*	*	*	*X8va	*	*
8r	8r	.	.	8r	.	8r	.	.
4r	4r	.	.	4r	.	4r	.	.
=89	=89	=89	=89	=89	=89	=89	=89	=89
4GG 4GGG^^</	4d 4B 4G 4D^^>\	.	.	4gg 4dd 4b^^>\	.	4ggg 4ddd 4bb^^>\	.	.
8.r	8.r	.	.	4r	.	8.r	.	.
16GG 16GGG/	16G\	.	.	.	.	16g/	.	.
=90	=90	=90	=90	=90	=90	=90	=90	=90
!	!	!LO:DY:b	!LO:DY:b	!	!	!	!LO:DY:b	!LO:DY:b
2GG 2GGG;>/	2G;>\	sf	sf	2r;>	.	2g;>/	sf	sf
==	==	==	==	==	==	==	==	==
*-	*-	*-	*-	*-	*-	*-	*-	*-
!!!system-decoration: {(s1,s2)}{(s3,s4)}
!!!RDF**kern: < = below
!!!RDF**kern: > = above
!!!filter-modern: sic -sq | shed -e "s/LO:DY:(a|b|rj)/LO:dy:$1/L" | shed -e "s/TX(.*):t=P:/tx$1:t=P:/LG" | modori -m | autostem -r | shed -e "s/yy//" | shed -k -e "s/\(y([^y])/($1/" | shed -e "s/-//B" | shed -k -e "s/[<>]//g" | shed -k -e "s/:TUP:/:tup:/L" | shed -k -e "s/r[a-gA-G]+/r/D"
!!!ENC: Filip Voros
!!!END: 2022-02-01
!!!ENC: Marta Chmielewska
!!!END: 2022-02-09
!!!EED-modern: Antoni Szymański
!!!END-modern: 2022-09-29
!!!YEC: Copyright 2022 Narodowy Instytut Fryderyka Chopina (https://polishscores.org)
!!!YEM: License CC-BY-4.0 (https://creativecommons.org/licenses/by/4.0)
